source/images/icon-start.svg

<?xml version="1.0" encoding="UTF-8"?>
<svg width="120px" height="65px" viewBox="0 0 120 65" version="1.1" xmlns="http://www.w3.org/2000/svg" xmlns:xlink="http://www.w3.org/1999/xlink">
    <!-- Generator: Sketch 41.1 (35376) - https://www.sketchapp.com -->
    <title>icon-start</title>
    <desc>Created with Sketch.</desc>
    <defs></defs>
    <g id="Updated-HOME" stroke="none" stroke-width="1" fill="none" fill-rule="evenodd">
        <g id="home-updated" transform="translate(-251.000000, -335.000000)" fill="#0093C9">
            <g id="Get-Started" transform="translate(120.000000, 280.000000)">
                <g id="icon-start" transform="translate(131.000000, 55.000000)">
                    <path d="M113.5099,26.1022 C114.2159,25.9232 114.9549,25.8272 115.7169,25.8272 C116.4789,25.8272 117.2189,25.9232 117.9239,26.1022 L117.9239,0.0002 L97.6249,0.0002 L97.6249,14.6802 L113.5099,14.6802 L113.5099,26.1022 Z" id="Fill-1"></path>
                    <path d="M12.2901,54.6833 C9.4031,54.6833 7.0551,56.9973 7.0551,59.8413 C7.0551,62.6863 9.4031,65.0003 12.2901,65.0003 C15.1761,65.0003 17.5251,62.6863 17.5251,59.8413 C17.5251,56.9973 15.1761,54.6833 12.2901,54.6833" id="Fill-3"></path>
                    <path d="M86.5143,45.3991 L45.3883,45.3991 C42.6303,45.3991 40.3863,43.5571 40.3863,41.2931 C40.3863,39.0291 42.6303,37.1871 45.3883,37.1871 L112.4053,37.1871 C112.1833,36.4831 112.0653,35.7451 112.0653,34.9851 C112.0653,34.2241 112.1833,33.4861 112.4053,32.7821 L45.3883,32.7821 C39.6713,32.7821 35.0203,36.6001 35.0203,41.2931 C35.0203,45.9861 39.6713,49.8041 45.3883,49.8041 L86.5143,49.8041 C89.2723,49.8041 91.5163,51.6461 91.5163,53.9091 C91.5163,56.1741 89.2723,58.0161 86.5143,58.0161 L16.6693,58.0161 C16.8913,58.7201 17.0093,59.4581 17.0093,60.2181 C17.0093,60.9781 16.8913,61.7171 16.6693,62.4211 L86.5143,62.4211 C92.2313,62.4211 96.8823,58.6031 96.8823,53.9091 C96.8823,49.2171 92.2313,45.3991 86.5143,45.3991" id="Fill-6"></path>
                    <path d="M109.5298,35.338 C109.5298,38.182 111.8778,40.496 114.7648,40.496 C117.6518,40.496 119.9998,38.182 119.9998,35.338 C119.9998,32.494 117.6518,30.18 114.7648,30.18 C111.8778,30.18 109.5298,32.494 109.5298,35.338" id="Fill-8"></path>
                    <path d="M12.2901,39.0201 C8.1701,39.0201 4.8311,35.7291 4.8311,31.6701 C4.8311,27.6111 8.1701,24.3201 12.2901,24.3201 C16.4101,24.3201 19.7491,27.6111 19.7491,31.6701 C19.7491,35.7291 16.4101,39.0201 12.2901,39.0201 M12.2901,19.5601 C5.5141,19.5601 0.0001,24.9931 0.0001,31.6701 C0.0001,34.4991 0.9901,37.1051 2.6461,39.1691 L12.2901,51.1161 L21.9341,39.1691 C23.5901,37.1051 24.5801,34.4991 24.5801,31.6701 C24.5801,24.9931 19.0671,19.5601 12.2901,19.5601" id="Fill-10"></path>
                </g>
            </g>
        </g>
    </g>
</svg>

<svg height="65" viewBox="0 0 120 65" width="120" xmlns="http://www.w3.org/2000/svg"><g fill="#0093c9" fill-rule="evenodd"><path d="m113.5099 26.1022c.706-.179 1.445-.275 2.207-.275s1.502.096 2.207.275v-26.102h-20.299v14.68h15.885z"/><path d="m12.2901 54.6833c-2.887 0-5.235 2.314-5.235 5.158 0 2.845 2.348 5.159 5.235 5.159 2.886 0 5.235-2.314 5.235-5.159 0-2.844-2.349-5.158-5.235-5.158"/><path d="m86.5143 45.3991h-41.126c-2.758 0-5.002-1.842-5.002-4.106s2.244-4.106 5.002-4.106h67.017c-.222-.704-.34-1.442-.34-2.202 0-.761.118-1.499.34-2.203h-67.017c-5.717 0-10.368 3.818-10.368 8.511s4.651 8.511 10.368 8.511h41.126c2.758 0 5.002 1.842 5.002 4.105 0 2.265-2.244 4.107-5.002 4.107h-69.845c.222.704.34 1.442.34 2.202s-.118 1.499-.34 2.203h69.845c5.717 0 10.368-3.818 10.368-8.512 0-4.692-4.651-8.51-10.368-8.51"/><path d="m109.5298 35.338c0 2.844 2.348 5.158 5.235 5.158s5.235-2.314 5.235-5.158-2.348-5.158-5.235-5.158-5.235 2.314-5.235 5.158"/><path d="m12.2901 39.0201c-4.12 0-7.459-3.291-7.459-7.35s3.339-7.35 7.459-7.35 7.459 3.291 7.459 7.35-3.339 7.35-7.459 7.35m0-19.46c-6.776 0-12.29 5.433-12.29 12.11 0 2.829.99 5.435 2.646 7.499l9.644 11.947 9.644-11.947c1.656-2.064 2.646-4.67 2.646-7.499 0-6.677-5.513-12.11-12.29-12.11"/></g></svg>
